icons/Device/rotate-lock-line.svg

<svg viewBox="0 0 24 24" xmlns="http://www.w3.org/2000/svg"><path d="M12 2C17.5228 2 22 6.47715 22 12C22 14.1364 21.3301 16.1162 20.1889 17.741L17 12H20C20 7.58172 16.4183 4 12 4C7.58172 4 4 7.58172 4 12C4 16.4183 7.58172 20 12 20C14.1502 20 16.1023 19.1517 17.5398 17.7716L18.5379 19.567C16.7848 21.083 14.4995 22 12 22C6.47715 22 2 17.5228 2 12C2 6.47715 6.47715 2 12 2ZM12 7C13.6569 7 15 8.34315 15 10V11H16V16H8V11H9V10C9 8.34315 10.3431 7 12 7ZM14 13H10V14H14V13ZM12 9C11.4872 9 11.0645 9.38604 11.0067 9.88338L11 10V11H13V10C13 9.48716 12.614 9.06449 12.1166 9.00673L12 9Z"/></svg>

<svg xmlns="http://www.w3.org/2000/svg" viewBox="0 0 24 24">
    <g>
        <path fill="none" d="M0 0h24v24H0z"/>
        <path d="M12 2c5.523 0 10 4.477 10 10 0 2.136-.67 4.116-1.811 5.741L17 12h3a8 8 0 1 0-2.46 5.772l.998 1.795A9.961 9.961 0 0 1 12 22C6.477 22 2 17.523 2 12S6.477 2 12 2zm0 5a3 3 0 0 1 3 3v1h1v5H8v-5h1v-1a3 3 0 0 1 3-3zm2 6h-4v1h4v-1zm-2-4a1 1 0 0 0-.993.883L11 10v1h2v-1a1 1 0 0 0-.883-.993L12 9z"/>
    </g>
</svg>
